X:81
T: Shiliu hua kai hong yanyan
N: C0103
O: China, Hubei, Tongshan
S: I, 372]
N: Strophe endet S. 373 Mitte.???    Neues Volkslied.
N: Vorspiel weggelassen.
R: Wuge, Dengdiao, Lianxiang. Xin minge]
M: 2/4
L: 1/16
K: D
BdA2BdA2 | A2A2z2A2 | B2ABe4
e2edB2A2 | BAAFA4
A2BAF2A2 | A2BAF2A2
BdBAB4 | B2B2z2
BB | e2B2z2BB | e4ezBB | d4
dABA | F2A2B2AB | A8
z8 | BdBAF2A2 | BdBAB2d2
d2d2A2B2 | AdBAF2F2
d2BdA2A2 | d2d2A2B2
d2d2A2B2 | A2BAF2F2
d2ddF2F2 | d2d2A2B2
d2d2A2B2 | A2BAF2F2
d2d2F2F2 | d2d2A2B2
d2d2A2B2 | A2A4B2 | B2Bde4
e2edB2BA | BAAFA4
A2BAF2A2 | A2BAF2A2
BdBAB4 | B2B2z2
BB | e2B2z2BB | e2e2ezB2 | d4
dABA | FAB2B2AB | A6
BB | e2B2z2BB | e2e2ezB2 | d4
dABA | FAB2b2ab | a8- | a8

